src/assets/images/icons/shield-check-line.svg

<svg xmlns="http://www.w3.org/2000/svg" width="24" height="24" fill="none" viewBox="0 0 24 24"><g clip-path="url(#a)"><path fill="#181d27" d="m12 1 8.217 1.826a1 1 0 0 1 .783.976v9.987a6 6 0 0 1-2.672 4.992L12 23l-6.328-4.219A6 6 0 0 1 3 13.79V3.802a1 1 0 0 1 .783-.976zm0 2.049L5 4.604v9.185a4 4 0 0 0 1.781 3.328L12 20.597l5.219-3.48A4 4 0 0 0 19 13.79V4.604zm4.452 5.173 1.415 1.414L11.503 16 7.26 11.757l1.414-1.414 2.828 2.828z"/></g><defs><clipPath id="a"><path fill="#fff" d="M0 0h24v24H0z"/></clipPath></defs></svg>

<svg width="24" height="24" viewBox="0 0 24 24" fill="none" xmlns="http://www.w3.org/2000/svg">
<g clip-path="url(#clip0_58_16284)">
<path d="M12 1L20.217 2.826C20.674 2.928 21 3.333 21 3.802V13.789C21 15.795 19.997 17.669 18.328 18.781L12 23L5.672 18.781C4.002 17.668 3 15.795 3 13.79V3.802C3 3.333 3.326 2.928 3.783 2.826L12 1ZM12 3.049L5 4.604V13.789C5 15.126 5.668 16.375 6.781 17.117L12 20.597L17.219 17.117C18.332 16.375 19 15.127 19 13.79V4.604L12 3.05V3.049ZM16.452 8.222L17.867 9.636L11.503 16L7.26 11.757L8.674 10.343L11.502 13.171L16.452 8.221V8.222Z" fill="#181D27"/>
</g>
<defs>
<clipPath id="clip0_58_16284">
<rect width="24" height="24" fill="white"/>
</clipPath>
</defs>
</svg>
